X: 38572
T: Stolen Kiss
R: jig
M: 6/8
K: Amajor
|:A,2A AGA|BAG A3|A,2A AGA|FAE DEF|
A,2A AGA|BAG A2 E|c3 cBc|d2B GFE:|
|:e3 edc|dcB c2 E|e3 edc|Bcd cBA|
e3 edc|dcB c3|EAA AGA|BcA GFE:|

